tw89Coder/adam-v2x/checkpoints/training_progress_discrete_ppo.csv
update,step,reward,batch_mean_reward,loss,mean_q,mean_target_q,avg_leakage_rate,lambda_penalty,replay_size,avg_inspection_rate,avg_target_sampling_rate,avg_attack_intensity,avg_fpr,avg_fnr,tp,tn,fp,fn
1,-0.20000000298023224,-0.030195329687558115,304.9114616394043
2,-9.999505001490116,-0.024135295732412486,32.91606035232544
3,-2.0,0.008820351609028877,809.7549865722656
4,-2.0,-0.0030909048160538076,798.4886291503906
5,-1.6433333158493042,-0.003629671735689044,786.8787261962891
6,-0.5,-0.027460076054558157,17.825696325302125
7,-10.09826750298023,-0.010876146104419605,10.357355952262878
8,-1.0833333730697632,-0.0013276183512061835,809.8920318603516
9,-3.8998693749999993,0.011748095834627747,2.927019900083542
10,-2.0,-0.014277822070289404,758.4118133544922
11,-2.0,-0.0034165368182584644,754.4086059570312
12,-2.0,-0.006215049885213375,747.2128967285156
13,-2.0,-0.015559333749115467,738.6327117919922
14,-2.0,0.007545089814811945,771.1488525390625
15,-2.0,-0.006680092215538025,729.2849853515625
16,-2.0,0.003286755084991455,726.6603790283203
17,-2.0,-0.01614599786698818,716.3061737060547
18,-2.0,-0.008268787816632539,711.4389251708984
19,-2.0,0.004375250241719186,709.5518249511719
20,-1.6666666269302368,-0.0026302499463781714,700.0091796875
21,-4.120877263888886,0.008603715198114514,3.94948388338089
22,-1.246666669845581,0.008730217628180981,687.8643463134765
23,-9.992845876490106,-0.00022356525296345352,7.147537899017334
24,-1.5866667032241821,0.03288984419777989,768.5311309814454
25,-9.994627876490105,0.0032789889723062516,8.013020730018615
26,-1.3966666460037231,0.016403571609407662,673.9886291503906
27,-5.647958534722218,-0.01416182043030858,3.4685464978218077
28,-1.0833333730697632,0.00045435745269060133,657.7362121582031
29,-8.895580166666658,-0.02060778234153986,6.532382392883301
30,-1.6666666269302368,-0.005628266744315625,630.7893859863282
31,-0.10000000149011612,-0.008367995440494269,52.92322745323181
32,-0.10000000149011612,-0.0335049326531589,0.8808499932289123
33,-7.895247222222214,-0.004822950996458531,5.735455060005188
34,-2.0,0.0018197294790297746,650.0374450683594
35,-1.6433333158493042,0.0025874136481434107,637.0427337646485
36,-0.10000000149011612,0.002139497920870781,9.198368191719055
37,-0.10000000149011612,-0.02613446619361639,0.841543011367321
38,-0.10000000149011612,-0.014448850508779287,0.8066409274935722
39,-0.10000000149011612,-0.0016336283646523953,0.44464260414242746
40,-1.6666666269302368,-0.02094191322103143,2.2321488499641418
41,-0.10000000149011612,0.0026547218672931193,1.4777489356696605
42,-9.987867001490098,-0.0037933836691081526,7.211991250514984
43,-2.0,-0.005331610422581434,659.1938659667969
44,-2.0,-0.005208754539489746,648.4071563720703
45,-1.5146666765213013,-0.010986634250730275,630.4569152832031
46,-0.30000001192092896,-0.004098529409384355,2.097877913713455
47,-9.987276537204384,-0.02968459650874138,7.160685300827026
48,-1.5429999828338623,-0.003759516682475805,1042.1977478027343
49,-9.991793412204386,0.007963905110955238,8.478633904457093
50,-1.6666666269302368,0.013048149179667234,623.7977111816406
51,-9.992040912204384,-0.03826591419056058,9.007445597648621
52,-1.246666669845581,0.004874745663255453,633.2511840820313
53,-9.992783412204384,-0.0015028373803943396,8.788644480705262
54,-1.5866667032241821,-0.006535206083208322,752.9594055175781
55,-9.994990287204384,-0.02145433919504285,9.107380151748657
56,-1.3966666460037231,-0.007317431923002005,603.338525390625
57,-9.995683287204384,-0.0028099448420107363,8.42017502784729
58,-1.5429999828338623,0.0027330433018505572,657.5100646972656
59,-9.996178287204385,-0.005905220471322537,9.64927887916565
60,-2.0,-0.003991836123168469,748.1574951171875
61,-4.3997455238095196,-0.006594524998217821,583.9052062988281
62,-2.0,0.001217336650006473,598.8115539550781
63,-2.0,-0.011245580948889255,548.7666870117188
64,-2.0,-0.003001193143427372,622.4642669677735
65,-2.0,0.010084243956953287,602.3293853759766
66,-2.0,0.007688694447278976,592.0361724853516
67,-2.0,-0.008270773518597707,602.8273895263671
68,-2.0,0.005145916156470776,520.0795761108399
69,-2.0,0.005190250650048256,535.3009384155273
70,-1.6666666269302368,0.003054732782766223,508.3573196411133
71,-0.10000000149011612,-0.004420046927407384,8.62794080376625
72,-0.10000000149011612,-0.01329913418740034,4.677600482106209
73,-9.996407912204385,-0.00620697126723826,10.519111514091492
74,-2.0,-0.005841931467875839,1273.149087524414
75,-1.5146666765213013,0.005863124452298507,498.52720794677737
76,-0.10000000149011612,-0.013426573155447841,7.916229701042175
77,-0.10000000149011612,0.001048877224093303,3.234287253022194
78,-0.10000000149011612,-0.0028388203121721745,4.483657060563564
79,-0.10000000149011612,0.002818357548676431,1.2136694118380547
80,-1.6666666269302368,-0.01592475939542055,4.511549496650696
81,-0.7986660003662109,0.0006516325025586412,891.0200225830079
82,-2.0,-0.012940130662173033,918.3506591796875
83,-2.0,0.003978144749999047,934.2663696289062
84,-1.5866667032241821,-0.013961042228038423,876.42705078125
85,-11.490643759598846,0.010297661239746958,1711.53671875
86,-1.8733333349227905,0.01733249514363706,738.5531707763672
87,-1.600000023841858,0.011990283988416195,1309.9379089355468
88,-1.899999976158142,-0.007029359973967075,1363.9683837890625
89,-2.0,-0.015880186855793,982.2191650390625
90,-1.6666666269302368,-0.010130729712545871,891.7851593017579
91,-4.108100916666663,-0.0038616481237113477,42.853453922271726
92,-1.6666666269302368,-0.010555857128929346,458.9060791015625
93,-2.7801218958925076,-0.005100802890956402,35.767410373687746
94,-1.6066666841506958,0.007429311098530888,456.6080978393555
95,-10.036362358257012,-0.0008585158735513687,20.851937341690064
96,-1.40666663646698,-0.007586432015523314,479.30839385986326
97,-5.497744319220213,0.00023422209196723997,36.99382390975952
98,-1.506666660308838,0.006933692656457424,415.2690948486328
99,-4.315718691125696,-0.01138205825118348,31.953208446502686
100,-1.6666666269302368,0.002726355125196278,335.3160255432129
101,-0.10000000149011612,0.002405579760670662,9.201796728372575
102,-0.10000000149011612,0.001046041669906117,3.2634814202785494
103,-10.033798977753866,-0.007220576662803069,10.99093430042267
104,-1.8383333683013916,0.011445458699017762,1351.428482055664
105,-1.7716660499572754,-0.009456412447616459,626.8277130126953
106,-0.10000000149011612,-0.027287265192717312,9.974084651470184
107,-0.10000000149011612,-0.0025804607197642327,3.1313560605049133
108,-0.10000000149011612,0.00413562785834074,5.107362212240696
109,-0.10000000149011612,-0.014122209884226323,1.3372179567813873
110,-1.6666666269302368,0.00760080311447382,13.68082423210144
111,-0.10000000149011612,-0.00966337500140071,2.2836134910583494
112,-4.05764103236807,-0.0054399421438574794,36.95829839706421
113,-2.0,-0.0028118040412664414,323.4356170654297
114,-2.0,-0.004521601367741823,424.3634948730469
115,-1.6466666460037231,-0.00860759273637086,406.99328765869143
116,-0.10000000149011612,0.0005695115774869919,4.8189649999141695
117,-2.2783894122518653,0.002992773544974625,52.53983039855957
118,-1.5366666316986084,0.03028301540762186,302.7348876953125
119,-2.0,-0.01608188692480326,71.68234758377075
120,-1.6666666269302368,-0.004844847437925637,393.4977005004883
121,-10.03484098743973,-0.012026142049580812,10.306562733650207
122,-1.246666669845581,-0.005618742806836963,356.09607009887696
123,-10.035088487439731,-0.0024548426852561535,10.545574307441711
124,-1.5866667032241821,-0.01185397277586162,677.5674926757813
125,-10.03783161243973,-0.00836632251739502,13.86833872795105
126,-1.3966666460037231,0.01548283128067851,416.2201904296875
127,-6.918908486732637,-0.004270748421549797,83.08667850494385
128,-1.5429999828338623,-0.0033264235127717255,348.98973541259767
129,-10.037460362439731,-0.028661620523780584,11.027801513671875
130,-2.0,-0.009042005124501883,445.49790649414064
131,-2.0,-0.029316253028810024,361.45078735351564
132,-2.0,-0.009984291763976217,387.0238739013672
133,-2.0,0.008306027203798295,382.81813659667966
134,-2.0,-0.003452574461698532,374.51373901367185
135,-2.0,-0.0031688183546066282,368.53856506347654
136,-2.0,-8.99776816368103e-05,363.08014526367185
137,-2.0,-0.006206988729536534,356.5804901123047
138,-2.0,0.011712710186839104,353.2224822998047
139,-2.0,-0.018889182526618243,343.44764099121096
140,-1.6666666269302368,-0.004803205386269838,323.1547882080078
141,-0.10000000149011612,-0.011593078449368476,13.062150645256043
142,-8.587839905122419,-0.0003534983843564987,117.6464614868164
143,-2.0,0.002998086775187403,250.48062801361084
144,-1.8383333683013916,-0.0049114258959889415,720.1219360351563
145,-1.8716659545898438,0.0027920923370402307,538.9554412841796
146,-0.10000000149011612,0.0067752541042864324,39.70101680755615
147,-10.035691326725436,0.0024096157867461443,14.50117621421814
148,-1.5429999828338623,0.01476203603670001,568.3954238891602
149,-6.918784236732633,0.0005791805684566498,130.36197662353516
150,-1.6666666269302368,0.006979459477588534,638.889404296875
151,-0.10000000149011612,-0.002733030915260315,33.172684001922605
152,-0.10000000149011612,-0.009944444545544684,7.163994160294533
153,-3.716162775497585,0.009440486691892147,122.3870002746582
154,-2.0,0.001657143735792488,314.6220230102539
155,-1.6466666460037231,-0.0034209219738841057,299.02126159667966
156,-0.10000000149011612,-0.0009359907358884812,15.690994799137115
157,-0.10000000149011612,-0.01234156582504511,5.057118624448776
158,-0.10000000149011612,-0.007127542654052377,6.508523640036583
159,-0.10000000149011612,-0.008859553141519427,2.4648635566234587
160,-1.6666666269302368,-0.004010001796996221,18.20255069732666
161,-0.10000000149011612,-0.008137098932638764,2.921727193892002
162,-0.10000000149011612,0.0006849403493106365,0.9641861267387867
163,-3.5719816856673487,-0.01488738446496427,25.82957057952881
164,-2.0,0.005358330626040697,369.95409927368166
165,-1.5146666765213013,0.01078956431010738,160.36812057495118
166,-0.10000000149011612,0.021282453229650854,22.221966004371644
167,-0.10000000149011612,-0.02106654979288578,1.1247083984315396
168,-0.10000000149011612,-0.014523750531952827,0.9663453087210655
169,-0.10000000149011612,0.00036601528991013764,0.5808951266109943
170,-1.6666666269302368,0.005984184145927429,24.282819843292238
171,-0.10000000149011612,0.005375718232244253,3.995030242949724
172,-7.222016647034542,-0.014960323588456958,53.78421611785889
173,-2.0,-0.017848169044737006,259.00063552856443
174,-2.0,-0.020572995487600564,307.06700439453124
175,-1.6066666841506958,-0.0021526380674913525,276.16148071289064
176,-0.10000000149011612,0.004110269621014595,4.963035753369331
177,-10.02801217621522,-0.015097026899456977,7.34420508146286
178,-1.506666660308838,0.01786012127995491,257.63855400085447
179,-2.0854221105970145,-0.0002297989442013204,161.55113220214844
180,-1.6666666269302368,-0.019761590845882894,252.61859283447265
181,-0.10000000149011612,-0.0010594931431114674,4.112752598524094
182,-0.7466660141944885,-0.006145525630563498,753.7207321166992
183,-10.029111521453313,0.009340990521013736,9.976851058006286
184,-1.5866667032241821,-0.00211046893382445,2870.6613891601564
185,-10.041404021453314,-0.001206463249400258,29.2135151386261
186,-2.0,0.0005500053986907006,1888.6753295898438
187,-0.10000000149011612,-0.0034882436040788887,72.22475509643554
188,-1.899999976158142,0.005664952285587788,2113.554968261719
189,-10.055759021453314,-0.002998964861035347,66.12094507217407
190,-2.0,0.007784429285675287,1404.8560852050782
191,-2.0,-0.0005439501546788961,213.9109962463379
192,-2.0,-0.007374243112280965,291.6934135437012
193,-2.0,0.0041638280410552396,283.98938446044923
194,-2.0,0.002671505161561072,277.31722793579104
195,-2.0,-0.012649808428250253,269.73592681884764
196,-2.0,-0.0003202631967724301,265.3302597045898
197,-2.0,-0.008885504119098187,258.888436126709
198,-2.0,0.00696856128051877,255.01042709350585
199,-2.0,0.0037963404320180416,249.58904724121095
200,-1.6666666269302368,-0.00439658397808671,239.1970443725586
201,-0.10000000149011612,0.0041820211336016655,43.55076160430908
202,-10.056006521453307,0.002400183817371726,11.697397351264954
203,-2.0,0.002895508240908384,835.5081268310547
204,-1.5866667032241821,0.021864862088114022,461.5611297607422
205,-1.5783339738845825,-0.013073903787881137,389.143864440918
206,-0.10000000149011612,-0.007446657167747617,132.53703536987305
207,-0.10000000149011612,-0.011031389981508256,4.319263911247253
208,-1.7999999523162842,0.002330072037875652,2293.292413330078
209,-10.071475271453306,-0.009404424019157887,130.682666015625
210,-1.6666666269302368,0.0053873565047979355,1894.23818359375
211,-0.10000000149011612,-0.0026546201668679716,107.5614504814148
212,-0.10000000149011612,-0.0038740052841603756,6.996204763650894
213,-3.1369383760564116,0.008615611447021365,238.7258285522461
214,-2.0,0.0013017579913139343,230.02784118652343
215,-1.6066666841506958,0.012726686708629132,225.41318435668944
216,-0.10000000149011612,-0.018888239469379186,66.5398289680481
217,-0.10000000149011612,-0.007488454319536686,8.165481176972389
218,-0.10000000149011612,0.013707245979458094,3.8753684014081955
219,-0.10000000149011612,0.0027852574363350867,6.505042088031769
220,-2.0,-0.004661150509491563,99.44860763549805
221,-2.0,-0.014505814714357256,158.49102993011473
222,-2.0,0.008012770814821124,295.4986747741699
223,-2.0,6.760519463568925e-05,304.3288864135742
224,-1.8383333683013916,-0.0014730337541550397,448.93455200195314
225,-2.0,0.0074884022353217,338.6121536254883
226,-2.0,-0.00029705381020903585,286.16530151367186
227,-1.7766666412353516,-0.009185190126299859,244.4729850769043
228,-2.0,0.0008664177265018224,326.39205169677734
229,-2.0,0.0029721778002567588,342.19530181884767
230,-1.6666666269302368,-0.009853780874982477,210.84434661865234
231,-3.0193192584553925,-0.0149416065774858,525.4853378295899
232,-1.6666666269302368,0.017771617323160172,187.25760192871093
233,-2.0,0.0035158039769157766,401.5564590454102
234,-1.65666663646698,-0.009056695154868066,175.05074310302734
235,-11.54021958147521,0.004161301720887423,379.9661071777344
236,-1.556666612625122,0.0003973430953919888,164.69460830688476
237,-3.0401997693367537,-0.0012737246230244636,331.0774574279785
238,-1.5366666316986084,-0.002854054234921932,176.768701171875
239,-3.5308619604595743,0.001036271802149713,303.44657745361326
240,-1.6666666269302368,-0.013321077032014728,184.5005905151367
241,-0.10000000149011612,-0.013177333341445774,23.121642565727235
242,-10.075592059066553,0.0018149042967706918,19.30930428504944
243,-2.0,0.006646535726031288,1669.2356018066407
244,-1.5866667032241821,0.0025340259075164796,447.7420455932617
245,-1.0933339595794678,0.002524433936923742,412.40688171386716
246,-0.10000000149011612,0.004267436807276681,28.36000003814697
247,-0.10000000149011612,0.015105372900143266,11.924642908573151
248,-0.6850000023841858,0.00047159038949757815,5478.993408203125
249,-10.10958205906655,-0.006773548293858766,22.26815023422241
250,-1.6666666269302368,-0.001189307775348425,841.1361068725586
251,-10.11288205906655,0.006355479406192899,148.64544906616212
252,-0.7466660141944885,-0.00018909343052655458,528.8528717041015
253,-10.114598059066552,0.019446432404220105,15.918277692794799
254,-1.5866667032241821,0.0042458953568711875,433.49655227661134
255,-10.11538180906655,0.00842741122469306,129.27156314849853
256,-1.899999976158142,0.0035445460118353365,592.0674285888672
257,-10.117238059066551,0.006093021295964718,172.96966667175292
258,-1.5429999828338623,-0.0059171644737944,413.89672164916993
259,-10.11802180906655,-0.005504992930218578,77.62036757469177
260,-1.6666666269302368,-0.009809731598943472,907.1838104248047
261,-0.10000000149011612,-0.0072808247990906235,121.51515483856201
262,-0.10000000149011612,0.003405348490923643,5.0737767040729524
263,-10.120084309066549,-0.018369779270142318,12.069041848182678
264,-1.5866667032241821,-0.011953534191707148,4851.481774902344
265,-1.1933339834213257,0.0036463797558099033,835.43720703125
266,-0.10000000149011612,-0.0007905790582299233,28.76621332168579
267,-0.10000000149011612,0.00543500417843461,6.353877252340316
268,-0.10000000149011612,0.0036878496408462524,6.851537135243416
269,-0.10000000149011612,-0.014520730811636896,3.2461177587509153
270,-2.0,-0.0014660704880952835,483.6310668945313
271,-2.0,0.009914872876834124,155.0717544555664
272,-2.0,-0.005798481228703167,148.0317642211914
273,-2.0,0.01357810739427805,146.2226947784424
274,-2.0,-0.010230425931513309,158.71300582885743
275,-2.0,-0.005288092931732535,198.8918197631836
276,-2.0,0.01311981501057744,133.28347053527833
277,-2.0,-0.0073835500981658695,131.6022155761719
278,-2.0,-0.005118249356746674,132.61263275146484
279,-2.0,-0.019946313835680483,121.01355056762695
280,-1.6666666269302368,-0.005152856579297804,137.82204475402833
281,-0.10000000149011612,-0.019218040839768948,153.53205032348632
282,-0.10000000149011612,0.006503023486584425,12.764822220802307
283,-10.13394430906654,0.00723148281686008,13.826310729980468
284,-1.8383333683013916,-0.002135543478652835,780.1734344482422
285,-1.8716659545898438,-0.0042186320177279414,259.21397361755373
286,-0.10000000149011612,0.00734342411160469,183.90361480712892
287,-0.10000000149011612,0.0029899372020736337,5.00455379486084
288,-0.10000000149011612,-0.018022221885621546,6.368325582146644
289,-0.10000000149011612,-0.006315584760159254,3.933713325858116
290,-1.6666666269302368,0.013571630604565144,35.263411140441896
291,-0.10000000149011612,0.01912937085144222,10.281690394878387
292,-10.135610809066538,-0.009487543581053614,9.260092425346375
293,-2.0,0.0071394644677639,1015.4291290283203
294,-2.0,0.016343498893547803,228.88773765563965
295,-1.5789999961853027,-0.009707418642938137,231.7420555114746
296,-0.10000000149011612,-0.004040592745877802,4.781271889805794
297,-10.13919955906654,-0.01393427113071084,8.521959447860718
298,-1.5429999828338623,0.01646009641699493,1730.90966796875
299,-10.146872059066538,-0.01070072390139103,9.344522428512573
300,-1.6666666269302368,0.00887431042829121,498.70734481811525
301,-0.8109999895095825,0.012954194936901331,966.8328704833984
302,-10.799973071770912,-0.008758140448480844,826.0516525268555
303,-10.15586455906654,0.010514315217733383,943.509878540039
304,-0.10000000149011612,0.003034982946701348,9521.933154296876
305,-2.0,0.0181913111358881,1110.609848022461
306,-1.8733333349227905,0.016102494113147257,293.0846565246582
307,-1.600000023841858,-0.011866982362698763,190.32337341308593
308,-1.899999976158142,-0.0020335350185632707,808.1618255615234
309,-2.0,0.005215407535433769,454.84859161376954
310,-1.6666666269302368,0.003484393656253815,376.4688262939453
311,-10.21534705906654,-0.00379459960386157,290.58073272705076
312,-1.246666669845581,-0.020644852565601467,1030.9490539550782
313,-10.219554559066541,-0.00870023095048964,178.91738510131836
314,-1.5866667032241821,0.01661787470802665,1700.0179718017578
315,-10.226237059066541,-0.0014968922245316208,193.2482177734375
316,-1.3966666460037231,0.0001038112211972475,642.1889358520508
317,-10.22912455906654,0.0104847130831331,144.4503568649292
318,-1.5429999828338623,0.002250890899449587,276.05052795410154
319,-10.22961955906654,-0.008903418108820916,157.54068489074706
320,-2.0,-0.00522407116368413,166.42093772888182
321,-2.0,0.0055281157372519376,88.13998069763184
322,-2.0,0.003420225717127323,84.06705818176269
323,-2.0,0.008724927995353937,81.064945602417
324,-2.0,0.014996419986709952,77.97487678527833
325,-2.0,-0.004414796456694603,74.569331741333
326,-2.0,0.0073348339414224025,71.70026741027831
327,-2.0,-0.01814340241253376,68.2529764175415
328,-2.0,-0.0029995869728736578,65.75241870880127
329,-2.0,0.0072717111557722095,63.444579124450684
330,-1.6666666269302368,-0.0019822924397885798,59.353264808654785
331,-2.102267722803802,0.020563639886677264,515.9366661071778
332,-1.6666666269302368,-0.0004975821822881699,55.29733009338379
333,-3.512339379361496,0.0002643088810145855,440.90902481079104
334,-1.6066666841506958,0.004301293846219778,111.76819229125977
335,-2.110769329967277,-0.0076435805589426305,372.51508712768555
336,-1.40666663646698,0.011191985057666897,291.32389678955076
337,-4.0196969078684575,0.006760003790259361,348.4794303894043
338,-1.506666660308838,-0.0034414962166920303,348.6948123931885
339,-9.848973348709052,0.02292695688083768,385.68260192871094
340,-1.6666666269302368,-0.014730536984279752,270.70585479736326
341,-0.10000000149011612,-0.009717156284023077,72.5209132194519
342,-8.712357561523842,0.022240007267100736,429.1342582702637
343,-2.0,-0.008538973797112704,65.4645098209381
344,-2.0,0.003759789397008717,92.04630317687989
345,-1.5789999961853027,0.004581623338162899,136.740389251709
346,-0.10000000149011612,-0.0035613907501101496,102.2329683303833
347,-10.418428800741136,-0.009280592144932598,54.10474677085877
348,-1.5429999828338623,0.00242086173966527,227.5589614868164
349,-10.218358076024607,-0.012634835077915341,48.49153060913086
350,-1.6666666269302368,0.012631696788594127,492.5248397827148
351,-0.10000000149011612,-0.022275895904749633,49.57881784439087
352,-0.10000000149011612,0.002378945425152779,16.800524067878722
353,-4.428695662911357,0.0009970615850761534,619.9950729370117
354,-2.0,-5.289593245834112e-05,33.96201188564301
355,-1.6466666460037231,0.004565837047994137,195.3708122253418
356,-0.10000000149011612,-0.008733114786446094,53.82378787994385
357,-0.10000000149011612,-0.023107400722801687,23.315218377113343
358,-0.10000000149011612,0.0024832926535509614,11.733607971668244
359,-0.10000000149011612,-0.00048546334728598594,16.357362484931947
360,-1.6666666269302368,0.0020955749321728947,32.2532262802124
361,-10.214916647453174,-0.0071565994760021566,14.400542831420898
362,-1.246666669845581,0.009050405130255967,239.4921127319336
363,-10.214586647453173,0.007912947330623865,12.27317430973053
364,-1.5866667032241821,0.0014537416282109916,580.2847854614258
365,-9.197274735151208,-0.0005562575999647379,221.82066802978517
366,-1.3966666460037231,0.007486722304020077,244.72937622070313
367,-10.31642522037186,0.011835173843428493,15.222806215286255
368,-1.0750000476837158,0.003145263437181711,348.4183723449707
369,-10.216065218881745,-0.0002970276400446892,14.37240743637085
370,-2.0,0.003399749519303441,469.2012095928192
371,-2.0,-0.008327865321189166,59.16570148468018
372,-2.0,0.006650478020310402,33.5099898815155
373,-2.0,-0.007574301771819591,51.791361045837405
374,-2.0,-0.016015155147761105,48.599735260009766
375,-2.0,0.005907451431266963,46.05256271362305
376,-2.0,-0.017012880416586995,43.28529281616211
377,-2.0,-0.007206360530108214,40.94978065490723
378,-2.0,-0.011453335065743886,38.42415723800659
379,-2.0,0.007131267432123422,36.38813314437866
380,-1.6666666269302368,-0.0066957507282495495,49.88428134918213
381,-0.10000000149011612,-0.011320570297539235,75.46590076684951
382,-0.10000000149011612,-0.008395672868937254,6.662705305218696
383,-10.211610218881738,-0.012636589352041483,15.301489019393921
384,-2.0,0.004763283953070641,340.10411338806153
385,-1.5789999961853027,-0.00990570723079145,201.55181198120118
386,-0.10000000149011612,0.002486092085018754,16.94206166267395
387,-0.10000000149011612,0.013138513267040252,7.615990227460861
388,-0.10000000149011612,-0.0018079683184623718,7.594178783893585
389,-0.10000000149011612,-0.01616617296822369,4.284196859598159
390,-1.6666666269302368,0.01383996568620205,15.484830498695374
391,-0.30000001192092896,0.0002198539674282074,3.6913457840681074
392,-7.815112331923641,-0.0030253770761191844,870.4407104492187
393,-2.0,0.010411345399916172,16.953994190692903
394,-2.0,-0.0025511257350444793,31.275111961364747
395,-1.6466666460037231,0.015885337628424166,478.43970108032227
396,-0.10000000149011612,-0.0012653696350753308,42.02843547463417
397,-3.631639611250015,-0.006987733440473676,1045.7119537353515
398,-1.5366666316986084,0.024771120212972165,595.9035232543945
399,-2.1895933430786854,0.009072895720601082,825.4520889282227
